X: 135017
T: The POOR OULD WOMAN
Q: "Irish Reel."
R: Reel.
%R: reel
B: James Kerr "Merry Melodies" v.1 p.35 s.0 #17
Z: 2016 John Chambers <jc:trillian.mit.edu>
M: C
L: 1/8
K: Am
|: ed |\
c2(Bc) AcBA | GEGA GABd |\
edcB   ABcd | e2A2 Afed |\
c2(Bc) AcBA | GEGA GABd |\
eg^fa  gedB | A2AA A2 :|
|: e^f |\
g2(ga) gedB | A2AA A2e^f |\
g2(ga) gedc | BcAB G3B |\
AEAB   AcBA | GEGA GABd |\
eg^fa  gedB | A2AA A2 :|

%%sep 1 1 500
%%sep 1 1 500

